X:1
T: Devy Hornpipe
C:
R:Reel
Q: 232
K:G
M:4/4
L:1/8
|:dc|BG Bd gd cB|Aa af gd cB|Bd BG Ac AF|AG FE DF dc|
BG Bd gd cB|Aa af gd cB|Bd BG Ac AF|G2 G2 G2 Bc|
dc BA GB dg|e2 c2 c2 cd|ed cB Aa ag|f2 d2 d2 ef|
ga ge fg af|ef ge dc BA|Bd BG Ac AF|G2 G2 G2:|
